X:1
T:Title
L:1/8
Q:1/4=140
M:6/8
K:Db
V:1 treble nm="Grand Piano"
V:1
 z2 B, B,2 D | F2 F E2 D | F2 G F2 E | E3- E2 D | C2 C C2 D | E2 E D2 C | E2 F E2 D | D3- D2 C | %8
 B,2 B, B,2 C | D2[K:treble] D D2 E | F2 F F2 G | =A3- A2 B | c2 F F2 F | d2 d c2 B | c2 c B2 =A | %15
 B6- | B6 |[M:12/8] d6 c3- c2 B | B12 | d6 c3- c2 B | B12 | c6 B3- B2 =A | =A12 | d6 c3- c2 B | %24
 B12 |] %25

